X:1
T:Flight of the Bumblebee
T:Flight of the Bumblebee
T:from The Tale of Tsar Saltan
T:Nikolai Rimsky-Korsakov (1844-1908)
C:Nikolai Rimsky-Korsakov (1844-1908)
%%score 1 { ( 2 4 ) | 3 }
L:1/8
Q:1/4=120
M:2/4
K:G
V:1 treble+8 nm="Recorder"
V:2 treble nm="Piano"
V:4 treble 
V:3 bass 
V:1
"^Vivace"!f! (b/^a/=a/^g/ a/g/=g/f/ | g/f/=f/e/ ^d/=d/^c/=c/) |!f!"_dim." B/^A/=A/^G/ A/G/=G/^F/ | %3
"_dim." G/F/^E/=E/ ^D/=D/^C/=C/ | B z z2 | z4 |!pp! B/^A/=A/^G/ =G/c/B/^A/ | %7
 B/^A/=A/^G/ =G/^G/A/^A/ | B/^A/=A/^G/ =G/c/B/^A/ | B/^A/=A/^G/ =G/^G/A/^A/ | %10
 B/^A/=A/^G/ A/G/=G/F/ | G/^G/A/^A/ B/c/B/A/ | B/^A/=A/^G/ A/G/=G/F/ | G/^G/A/^A/ B/^c/d/^d/ | %14
 e/^d/=d/^c/ =c/=f/e/^d/ | e/^d/=d/^c/ =c/^c/d/^d/ | e/^d/=d/^c/ =c/=f/e/^d/ | %17
 e/^d/=d/^c/ =c/^c/d/^d/ | e/^d/=d/^c/ d/c/=c/B/ | c/^c/d/^d/ e/=f/e/d/ | e/^d/=d/^c/ d/c/=c/B/ | %21
 c/^c/d/^d/ e/=f/e/d/ | (e/E/E/E/!<(! E/E/E/E/!<)! | !>!=F/!>(!E/F/^D/ !>!F/E/F/D/)!>)! | %24
 E/E/E/E/!<(! E/E/E/E/!<)! | !>!=F/!>(!E/F/^D/ !>!F/E/F/D/!>)! | %26
!<(! !>!E/=F/E/^D/!<)!!>(! !>!E/F/E/D/!>)! |!<(! E/=F/E/^D/ E/F/E/D/!<)! | %28
!<(! E/=F/^F/G/!<)!!>(! ^G/=G/F/=F/!>)! |!<(! E/=F/^F/G/!<)!!>(! ^G/=G/F/=F/!>)! | %30
!<(! E/A/A/A/ A/A/A/A/!<)! | !>!_B/!>(!A/B/^G/!>)! !>!B/A/B/G/ |!<(! A/A/A/A/ A/A/A/A/!<)! | %33
 !>!_B/A/B/^G/ !>!B/A/B/G/ | A/_B/A/^G/ A/B/A/G/ | A/_B/A/^G/ A/B/A/G/ | %36
!<(! A/_B/=B/c/!<)!!>(! ^c/=c/B/_B/!>)! |!<(! A/_B/=B/c/!<)!!>(! ^c/=c/B/_B/!>)! | %38
!p! A/^G/=G/F/ =F/_B/A/^G/ | A/^G/=G/F/ =F/^F/G/^G/ | A/^G/=G/F/ G/F/=F/E/ | %41
 =F/^F/G/^G/ =G/^G/A/^A/ | B/^A/=A/^G/ A/G/=G/F/ | G/F/=F/E/ ^D/=D/^C/=C/ | B/c/B/^A/ B/c/B/A/ | %45
 B/c/B/^A/ B/c/B/A/ | B/c/B/^A/ B/c/B/A/ | B/c/B/^A/ B/c/B/A/ | B/_B/=A/^G/ A/G/=G/F/ | %49
 G/^F/=F/E/ _E/D/^C/=C/ | B z!mf! BG | EC EG | B2 BG | EC EG | B4 | b4- | b2 (b2 | B2) z2 | %58
!mf! B/^A/=A/^G/ =G/c/B/^A/ | B/^A/=A/^G/ =G/^G/A/^A/ | B/^A/=A/^G/ =G/c/B/^A/ | %61
 B/^A/=A/^G/ =G/^G/A/^A/ | B/^A/=A/^G/ A/G/=G/F/ | G/^G/A/^A/ B/c/B/A/ | B/^A/=A/^G/ A/G/=G/F/ | %65
 G/^G/A/^A/ B/^c/d/^d/ | e/^d/=d/^c/ =c/=f/e/^d/ | e/^d/=d/^c/ =c/^c/d/^d/ | %68
 e/^d/=d/^c/ =c/=f/e/^d/ | e/^d/=d/^c/ =c/^c/d/^d/ | e/^d/=d/^c/ d/c/=c/B/ | c/^c/d/^d/ e/=f/e/d/ | %72
 e/^d/=d/^c/ =c/^c/d/^d/ |"_cresc." e/f/g/a/ b/=c'/b/^a/ |!f! b/^a/=a/^g/ =g/c'/b/^a/ | %75
 b/^a/=a/^g/!<(! =g/^g/a/^a/!<)! |!f! b/^a/=a/^g/ =g/c'/b/^a/ | b/^a/=a/^g/ =g/^g/a/^a/ | %78
 b/ z/ ^D/E/ =F/^F/=G/^G/ | A/^G/=G/F/ G/F/=F/E/ | ^D/E/^E/^F/ G/^G/A/^A/ | B/c/B/^A/ B/c/B/A/ | %82
 B(^d/e/) =f/^f/g/^g/ | a/^g/=g/f/ g/f/=f/e/ | D/E/^E/^F/ G/^G/A/^A/ | %85
 B/c/B/^A/"_cresc." B/^c/d/^d/ |!f! e/^d/=d/^c/ d/c/=c/B/ | c/B/^A/=A/ ^G/=G/F/=F/ | %88
!mf! e/^d/=d/^c/ d/c/=c/B/ |"_dim." c/B/^A/=A/ ^G/=G/F/=F/ | E/=F/E/^D/ E/F/E/D/ | %91
 E/=F/E/^D/ E/E/E/E/ | B/c/B/^A/ B/c/B/A/ | B/c/B/^A/ B/B/B/B/ | e z!p! B/C/^C/D/ | %95
 ^D/E/=F/^F/ G/^G/A/^A/ | B/c/^c/d/ ^d/e/=f/^f/ | g/^g/a/^a/ B/^c/=d/^d/ | (E4 | e2) z2 | %100
!p! .E z z2 | !fermata!z4 |] %102
V:2
 .[B^dfb] z z2 | z4 |!mf! .[A,B,^DFB] z z2 | z4 |!p! B,/^B,/=A,/^G,/ A,/G,/=G,/F,/ | %5
 B,/^B,/=A,/^G,/ A,/G,/=G,/F,/ |!pp! .[EG] z z2 | .[EG] z .E z | .[EG] z z2 | [EG] z E z | %10
 [EG] z [EA] z | [GB] z [FB] z | [EB] z [EA] z | [GB] z [FB] z | [EB] z [EA] z | [EA] z [FA] z | %16
 [EA] z z2 | [EA] z [FA] z | [EA] z [=FA] z | [EA] z [E^G] z | [EA] z [=FA] z | [EA] z [EB] z | %22
 [Ec] z z2 | %23
[I:staff +1] .[^D,=F,]/.E,/.[D,F,]/[I:staff -1].=F/[I:staff +1] .[D,F,]/.E,/.[D,F,]/[I:staff -1].F/ | %24
 .E z z2 | %25
[I:staff +1] !>!.[^D=F]/[I:staff -1].E/[I:staff +1].[DF]/[I:staff -1].=f/[I:staff +1] .[DF]/[I:staff -1].E/[I:staff +1].[DF]/[I:staff -1].f/ | %26
 .e/ z/ x[I:staff +1] .[^D=F]/.E/.[DF]/[I:staff -1].=f/ | .e z .e z | e4 | e4 | [A,E] z z2 | %31
[I:staff +1] .[^G,_B,]/[I:staff -1].A,/[I:staff +1].[G,B,]/[I:staff -1]._B/[I:staff +1] .[G,B,]/[I:staff -1].A,/[I:staff +1].[G,B,]/[I:staff -1].B/ | %32
 .A z z2 | %33
[I:staff +1] !>!.[^G,_B,]/[I:staff -1].A,/[I:staff +1].[G,B,]/[I:staff -1]._B/[I:staff +1] .[G,B,]/[I:staff -1].A,/[I:staff +1].[G,B,]/[I:staff -1].B/ | %34
 .A/ z/ x[I:staff +1] !>!.[^G,_B,]/[I:staff -1].A,/[I:staff +1].[G,B,]/[I:staff -1]._B/ | %35
 .A z .A z | A4 | A4 | [A,DA] z z2 | [DA] z D z | D z _B, z | A, z z2 | A, z!p! !>![B,B]2- | %43
 [B,B]2 .[B,B] z | [A,B] z z2 | [B,B]4 | z4 | [Bb]4 | z4 | z4 | z2 !>!B,2- | B,2 (B,2 | %52
 .B) z !>!B,2- | B,2 (B,2 |"_cresc." .B) z z2 | G,/^G,/A,/^A,/ B,/C/^C/D/ | %56
 ^D/E/^E/F/ =G/^G/A/^A/ | B/c/B/^A/ B/c/B/A/ | [GBe] z z2 |!p! [Ge] z [Ae] z | [Ge] z z2 | %61
 [Ge] z [Ae] z | [Ge] z [EA] z | [B,EG] z [B,^DF] z | [B,EB] z [EA] z | [B,EG] z [B,^DF] z | %66
 [B,EB] z [Cc] z | [ca] z [Ada] z | [ca] z z2 | [ca] z [Ada] z | [ca] z [Ad] z | [Ae] z [^Ge] z | %72
 [EA] z [CE] z | [B,E] z [A,F] z |!mf! !>![G,G].G, z2 | [G,B,] z [A,E] z |!mf! !>![G,G].G, z2 | %77
 [G,B,] z [A,E] z | [G,G] z!mf! .e.c | .A.F .A.c | .[Ee] z z2 | [F,A,B,] z z2 | %82
 [G,B,] z!8va(! e'.c' | .a.f .a.c' | [ee']!8va)! z z2 | [F,A,B,] z z2 | [G,B,] z [B,DE] z | %87
 [CE] z z2 | [E,G,] z [E,^G,] z | [E,A,] z z2 | %90
 [E,=G,] z!p![I:staff +1] [^D,=F,]/[I:staff -1]_E,/[I:staff +1][D,F,]/[I:staff -1]=F/ | %91
 .E[I:staff +1] ^D,/[I:staff -1]^F,/[I:staff +1] =D,/[I:staff -1][E,^G,]/[I:staff +1][C,E,]/[I:staff -1]A,/ | %92
 [=G,B,] z[I:staff +1] [^A,C]/B,/[A,C]/[I:staff -1]c/ | %93
 .B[I:staff +1] =A,/[I:staff -1][B,^C]/[I:staff +1] G,/[I:staff -1][B,D]/[I:staff +1]F,/[I:staff -1][A,^D]/ | %94
 [B,E] z z2 | z4 | [EG] z z2 | [Be] z z2 | b z z2 | [EGe]2 z2 | .E, z z2 | !fermata!z4 |] %102
V:3
 .[B,,^D,F,B,] z z2 | z4 | .[B,,,F,,B,,] z z2 | z4 | z4 | z4 | .[E,,B,,] z z2 | %7
 .[E,,B,,] z .[A,,^C,] z | .[E,,B,,] z z2 | [E,,B,,] z [A,,^C,] z | [E,,B,,] z =C, z | %11
 [B,,E,] z [A,,^D,] z | [G,,B,,] z C, z | [B,,E,] z [A,,^D,] z | [^G,,=D,] z [A,,C,] z | %15
 C, z [A,,D,] z | C, z z2 | C, z [A,,D,] z | C, z D, z | B,, z [B,,D,] z | C, z [A,,D,] z | %21
 [A,,C,] z [^G,,D,] z | [A,,C,] z z2 | x4 | .E, z z2 | x4 | E,/ z/ .E,/.E,/ x2 | %27
 .E,.[^D,=F,].[D,F,].[^C,G,] | =C,4- | =C,4 | [^C,E,] z z2 |[K:treble] x4 | .A, z z2 | x4 | %34
 A,/ z/ .A,/[I:staff -1].A,/[I:staff +1] x2 | .A,.[^G,_B,].[=G,=B,].[F,C] |[K:bass] =F,4- | F,4 | %38
 [=F,A,] z z2 | [=F,A,] z [G,_B,] z | [=F,A,] z [^C,G,] z | [D,=F,] z [=C,E,] z | [B,,^D,] z z2 | %43
 z4 | z2!p! .B,.G, | .E,.C, .E,.G, | B,2 .B,.G, | .E,.C, .E,.G, | .B, z z2 | z4 | %50
 (B,,/C,/B,,/^A,,/ B,,/C,/B,,/A,,/ | B,,/C,/B,,/^A,,/ B,,/C,/B,,/A,,/) | %52
 (B,,/C,/B,,/^A,,/ B,,/C,/B,,/A,,/ | B,,/C,/B,,/^A,,/ B,,/C,/B,,/A,,/) | %54
 (B,,/C,/^C,/D,/ ^D,/E,/^E,/F,/) | z4 | z4 | z4 | [E,,B,,] z z2 | [E,B,] z [^C,E,] z | %60
 [E,B,] z z2 | [E,B,] z [^C,E,] z | [E,B,] z [=C,E,] z | B,, z A,, z | G,, z [C,E,] z | %65
 B,, z A,, z | ^G,, z [A,,E,] z |[K:treble] [A,E] z [F,A,] z | [A,E] z z2 | [A,E] z [F,A,] z | %70
 [A,E] z [=F,A,] z | [E,A,] z [D,B,] z |[K:bass] [C,A,] z [A,,E,] z | [G,,E,] z [F,,^D,] z | %74
 !>![E,,B,,].B,, z2 | [E,,A,,] z [^B,,,A,,] z | !>![E,,B,,].B,, z2 | [E,,B,,] z [^C,,A,,] z | %78
 [E,,B,,] z z2 | [C,E,A,] z z2 | .[B,,G,] z z2 | [B,,^D,] z z2 | [E,,E,] z z2 | [C,E,A,] z z2 | %84
 [B,,G,] z z2 | [B,,^D,] z z2 | [E,,E,] z [E,^G,] z | [E,A,] z z2 | [E,,B,,] z [E,,B,,] z | %89
 [E,,C,] z z2 | [E,,B,,]2 x2 | .E, x x2 | .[B,,E,] x x2 | .B, x x2 | [E,G,] z z2 | z4 | %96
!p! [E,B,] z z2 |[K:treble] [EG] z z2 | [eg] z z2 |[K:bass] [E,B,]2 z2 |!pp! .[E,,,E,,] z z2 | %101
 !fermata!z4 |] %102
V:4
 x4 | x4 | x4 | x4 | x4 | x4 | x4 | x4 | x4 | x4 | x4 | x4 | x4 | x4 | x4 | x4 | x4 | x4 | x4 | %19
 x4 | x4 | x4 | x4 | x4 | x4 | x4 | x4 | x4 | ^G/E/G/E/ G/E/G/E/ | ^G/E/G/E/ G/E/G/E/ | x4 | x4 | %32
 x4 | x4 | x4 | x4 | ^C/A,/C/A,/ C/A,/C/A,/ | ^C/A,/C/A,/ C/A,/C/A,/- | x4 | x4 | x4 | x4 | x4 | %43
 x4 | x4 | x4 | x4 | x4 | x4 | x4 | x4 | x4 | x4 | x4 | x4 | x4 | x4 | x4 | x4 | x4 | x4 | x4 | %62
 x4 | x4 | x4 | x4 | x4 | x4 | x4 | x4 | x4 | x4 | x4 | x4 | x4 | x4 | x4 | x4 | x4 | x4 | x4 | %81
 x4 | x2!8va(! x2 | x4 | x!8va)! x3 | x4 | x4 | x4 | x4 | x4 | x4 | x4 | x4 | x4 | x4 | x4 | x4 | %97
 x4 | x4 | x4 | x4 | x4 |] %102

